X:924
T:Sine Bhan
S:Orwell Ceilidh Band, Inchture
Z:Nigel Gatherer
M:3/4
L:1/4
K:D
D2D | E2F | B2A | A3  | F2E | FB2 | A2F | E3  |
D2D | E2F | B2A | A3  | D2D | F2F | E3  | D3  |
D2D | E2F | d2B | BA2 | d2B | BA2 | d2F | E3  |
D2D | E2F | d2B | BA2 | D2D | F2F | E3  | D3 |]
<end>
<start>
